svg/furkot/icomoon/instagram.svg

<svg viewBox="0 0 512 512" xmlns="http://www.w3.org/2000/svg"><path d="m464 0h-416c-26.4 0-48 21.6-48 48v416c0 26.4 21.6 48 48 48h416c26.4 0 48-21.6 48-48v-416c0-26.4-21.6-48-48-48zm-112 80c0-8.8 7.2-16 16-16h64c8.8 0 16 7.2 16 16v64c0 8.8-7.2 16-16 16h-64c-8.8 0-16-7.2-16-16zm-96 80c52.992 0 96 43.008 96 96s-43.008 96-96 96-96-43.008-96-96 43.008-96 96-96zm192 272c0 8.8-7.2 16-16 16h-352c-8.8 0-16-7.2-16-16v-208h35.2c-2.112 10.304-3.2 20.992-3.2 32 0 88.384 71.584 160 160 160s160-71.616 160-160c0-11.008-1.088-21.696-3.2-32h35.2z"/></svg>

<svg xmlns="http://www.w3.org/2000/svg" viewBox="0 0 512 512"><path d="M464 0H48C21.6 0 0 21.6 0 48V464C0 490.4 21.6 512 48 512H464C490.4 512 512 490.4 512 464V48C512 21.6 490.4 0 464 0ZM352 80C352 71.2 359.2 64 368 64H432C440.8 64 448 71.2 448 80V144C448 152.8 440.8 160 432 160H368C359.2 160 352 152.8 352 144V80ZM256 160C308.992 160 352 203.008 352 256S308.992 352 256 352C203.008 352 160 308.992 160 256S203.008 160 256 160ZM448 432V432C448 440.8 440.8 448 432 448H80C71.2 448 64 440.8 64 432V432 224H99.2C97.088 234.304 96 244.992 96 256 96 344.384 167.584 416 256 416S416 344.384 416 256C416 244.992 414.912 234.304 412.8 224H448V432Z"/></svg>
